setcps(180/240)

hush

do 
    let func = 
            void
            .func1
            -- .func2
            .func3
    p "a"
        $ func 
        $ stack
        [
            "bd [bd bd] bd bd",
            "~ cp ~ cp",
            "hh*8",
            "[~ oh]*4?"
        ] 